data/icons/scalable/status/xfpm-brightness-lcd.svg

<?xml version="1.0" encoding="UTF-8" standalone="no"?>
<!-- Created with Inkscape (http://www.inkscape.org/) -->

<svg
   xmlns:dc="http://purl.org/dc/elements/1.1/"
   xmlns:cc="http://creativecommons.org/ns#"
   xmlns:rdf="http://www.w3.org/1999/02/22-rdf-syntax-ns#"
   xmlns:svg="http://www.w3.org/2000/svg"
   xmlns="http://www.w3.org/2000/svg"
   xmlns:xlink="http://www.w3.org/1999/xlink"
   xmlns:inkscape="http://www.inkscape.org/namespaces/inkscape"
   version="1.0"
   width="48"
   height="48"
   id="svg11300">
  <metadata
     id="metadata21">
    <rdf:RDF>
      <cc:Work
         rdf:about="">
        <dc:format>image/svg+xml</dc:format>
        <dc:type
           rdf:resource="http://purl.org/dc/dcmitype/StillImage" />
      </cc:Work>
    </rdf:RDF>
  </metadata>
  <defs
     id="defs3">
    <linearGradient
       id="linearGradient5170">
      <stop
         id="stop5172"
         style="stop-color:#000000;stop-opacity:1"
         offset="0" />
      <stop
         id="stop5174"
         style="stop-color:#000000;stop-opacity:0"
         offset="1" />
    </linearGradient>
    <linearGradient
       id="linearGradient5160">
      <stop
         id="stop5162"
         style="stop-color:#ffffff;stop-opacity:1"
         offset="0" />
      <stop
         id="stop5164"
         style="stop-color:#d3d7cf;stop-opacity:1"
         offset="1" />
    </linearGradient>
    <linearGradient
       id="linearGradient5152">
      <stop
         id="stop5154"
         style="stop-color:#ffffff;stop-opacity:1"
         offset="0" />
      <stop
         id="stop5156"
         style="stop-color:#ffffff;stop-opacity:0"
         offset="1" />
    </linearGradient>
    <linearGradient
       x1="23.28125"
       y1="21.40625"
       x2="21.78125"
       y2="55.90625"
       id="linearGradient5158"
       xlink:href="#linearGradient5152"
       gradientUnits="userSpaceOnUse" />
    <radialGradient
       cx="25.90625"
       cy="18.03125"
       r="19.005075"
       fx="25.90625"
       fy="18.03125"
       id="radialGradient5166"
       xlink:href="#linearGradient5160"
       gradientUnits="userSpaceOnUse"
       gradientTransform="matrix(0.73703,0,0,0.73703,6.812572,4.741682)" />
    <radialGradient
       cx="25.3125"
       cy="40.75"
       r="18.0625"
       fx="25.3125"
       fy="40.75"
       id="radialGradient5176"
       xlink:href="#linearGradient5170"
       gradientUnits="userSpaceOnUse"
       gradientTransform="matrix(1,0,0,0.352941,0,26.36765)" />
  </defs>
  <g
     transform="translate(-1.1660231,-0.6486486)"
     id="layer1">
    <path
       d="m 43.375,40.75 c 0,3.520815 -8.086857,6.375 -18.0625,6.375 -9.975643,0 -18.0625,-2.854185 -18.0625,-6.375 0,-3.520815 8.086857,-6.375 18.0625,-6.375 9.975643,0 18.0625,2.854185 18.0625,6.375 z"
       inkscape:connector-curvature="0"
       transform="matrix(1.138408,0,0,1.138408,-3.50346,-7.640138)"
       id="path5168"
       style="opacity:0.23595503;fill:url(#radialGradient5176);fill-opacity:1;fill-rule:evenodd;stroke:none;stroke-width:1;marker:none;visibility:visible;display:inline;overflow:visible" />
    <path
       d="m 23.5625,5.53125 0,5.125 c -2.568896,0.357251 -4.916309,1.417503 -6.84375,2.96875 L 13,9.90625 C 11.095031,8.0012812 9.0459565,10.139706 10.90625,12 l 3.71875,3.71875 c -1.557977,1.918422 -2.604498,4.251118 -2.96875,6.8125 l -5.125,0 c -2.7457353,0 -2.4764516,2.96875 0,2.96875 l 5.03125,0 c 0.193206,2.705867 1.141174,5.183551 2.65625,7.25 l -3.3125,3.3125 C 9.09375,37.875 11.318297,39.837953 13,38.15625 l 3.1875,-3.1875 c 2.017448,1.79689 4.568046,2.987904 7.375,3.375 l 0,4.1875 c 0,2.653123 2.96875,2.657536 2.96875,0 l 0,-4.0625 c 2.92897,-0.213248 5.596537,-1.351537 7.75,-3.09375 l 2.78125,2.78125 c 1.502602,1.679379 3.861517,-0.414371 2.09375,-2.09375 L 36.375,33.28125 C 38.125006,31.116256 39.228658,28.44297 39.4375,25.5 l 4.09375,0 c 2.034853,0 2.304886,-2.96875 0,-2.96875 l -4.1875,0 c -0.391606,-2.79504 -1.584537,-5.333519 -3.375,-7.34375 L 39.15625,12 C 40.74724,10.232233 38.65349,8.4036481 37.0625,9.90625 L 33.75,13.21875 C 31.691357,11.709397 29.225223,10.760857 26.53125,10.5625 l 0,-5.03125 c 0,-2.3881217 -2.96875,-2.2097087 -2.96875,0 z"
       inkscape:connector-curvature="0"
       id="path4263"
       style="fill:url(#radialGradient5166);fill-opacity:1;fill-rule:evenodd;stroke:#888a85;stroke-width:1.01015258;stroke-linecap:butt;stroke-linejoin:miter;stroke-miterlimit:4;stroke-opacity:1;stroke-dasharray:none;stroke-dashoffset:0;marker:none;visibility:visible;display:inline;overflow:visible" />
    <path
       d="m 25.09375,4.6875 c -0.291185,0.00875 -0.65625,0.143062 -0.65625,0.84375 l 0,5.125 c 6.13e-4,0.436942 -0.318105,0.808779 -0.75,0.875 -2.405343,0.334506 -4.598633,1.32644 -6.40625,2.78125 -0.352791,0.288307 -0.866923,0.261248 -1.1875,-0.0625 L 12.375,10.53125 c -0.723506,-0.7235054 -1.04024,-0.525436 -1.1875,-0.375 -0.14726,0.150436 -0.351919,0.523081 0.34375,1.21875 L 15.25,15.09375 c 0.323748,0.320577 0.350807,0.834709 0.0625,1.1875 -1.459044,1.796601 -2.439691,3.973193 -2.78125,6.375 -0.06622,0.431895 -0.438058,0.750613 -0.875,0.75 l -5.125,0 c -0.5271548,0 -0.8092283,0.13919 -0.9375,0.25 -0.1282717,0.11081 -0.1301139,0.199742 -0.125,0.3125 0.010228,0.225517 0.1774716,0.65625 1.0625,0.65625 l 5.03125,0 c 0.458154,0.0032 0.837967,0.355835 0.875,0.8125 0.181308,2.539231 1.080176,4.844717 2.5,6.78125 0.261379,0.354891 0.221388,0.848104 -0.09375,1.15625 l -3.3125,3.3125 c -0.332795,0.332795 -0.398528,0.591129 -0.40625,0.75 -0.0077,0.158871 0.03411,0.258371 0.125,0.34375 0.181769,0.170758 0.543527,0.331473 1.125,-0.25 l 3.1875,-3.1875 c 0.332936,-0.333706 0.86915,-0.347455 1.21875,-0.03125 1.886004,1.679816 4.270573,2.792774 6.90625,3.15625 0.431895,0.06622 0.750613,0.438058 0.75,0.875 l 0,4.1875 c 0,0.996883 0.409858,1.09359 0.625,1.09375 0.215142,1.6e-4 0.59375,-0.09411 0.59375,-1.09375 l 0,-4.0625 c 0.0032,-0.458154 0.355835,-0.837967 0.8125,-0.875 2.74054,-0.199529 5.227664,-1.270122 7.25,-2.90625 0.352791,-0.288307 0.866923,-0.261248 1.1875,0.0625 l 2.78125,2.78125 c 0.01067,0.01015 0.0211,0.02058 0.03125,0.03125 0.476332,0.532371 0.772583,0.370124 1,0.15625 0.113708,-0.106937 0.188922,-0.229386 0.1875,-0.375 -0.0014,-0.145614 -0.03946,-0.335928 -0.34375,-0.625 -0.01067,-0.01015 -0.0211,-0.02058 -0.03125,-0.03125 L 35.75,33.90625 c -0.323748,-0.320577 -0.350807,-0.834709 -0.0625,-1.1875 1.640602,-2.029646 2.679046,-4.519901 2.875,-7.28125 0.03703,-0.456665 0.416846,-0.809349 0.875,-0.8125 l 4.09375,0 c 0.587579,0 0.735773,-0.343419 0.75,-0.65625 0.0071,-0.156416 -0.03909,-0.285448 -0.125,-0.375 -0.08591,-0.08955 -0.238522,-0.1875 -0.625,-0.1875 l -4.1875,0 c -0.436942,6.13e-4 -0.808779,-0.318105 -0.875,-0.75 -0.367586,-2.623598 -1.4819,-4.995134 -3.15625,-6.875 -0.316205,-0.3496 -0.302456,-0.885814 0.03125,-1.21875 L 38.5,11.40625 c 0.0153,-0.017 0.01703,-0.01482 0.03125,-0.03125 0.510895,-0.590681 0.332822,-0.834609 0.15625,-1 -0.181485,-0.169993 -0.506589,-0.308013 -1.03125,0.1875 L 34.375,13.84375 c -0.308146,0.315138 -0.801359,0.355129 -1.15625,0.09375 -1.929591,-1.414735 -4.22243,-2.313895 -6.75,-2.5 -0.456665,-0.03703 -0.809349,-0.416846 -0.8125,-0.875 l 0,-5.03125 c 0,-0.4177553 -0.123623,-0.5893215 -0.21875,-0.6875 -0.09513,-0.098179 -0.198157,-0.1606248 -0.34375,-0.15625 z"
       inkscape:connector-curvature="0"
       id="path5150"
       style="opacity:0.64606742;fill:none;stroke:url(#linearGradient5158);stroke-width:1;stroke-linecap:butt;stroke-linejoin:miter;stroke-miterlimit:4;stroke-opacity:1;stroke-dasharray:none;stroke-dashoffset:0;marker:none;visibility:visible;display:inline;overflow:visible" />
  </g>
</svg>

<?xml version="1.0" encoding="UTF-8" standalone="no"?>
<!-- Created with Inkscape (http://www.inkscape.org/) -->
<svg
   xmlns:dc="http://purl.org/dc/elements/1.1/"
   xmlns:cc="http://creativecommons.org/ns#"
   xmlns:rdf="http://www.w3.org/1999/02/22-rdf-syntax-ns#"
   xmlns:svg="http://www.w3.org/2000/svg"
   xmlns="http://www.w3.org/2000/svg"
   xmlns:xlink="http://www.w3.org/1999/xlink"
   xmlns:sodipodi="http://sodipodi.sourceforge.net/DTD/sodipodi-0.dtd"
   xmlns:inkscape="http://www.inkscape.org/namespaces/inkscape"
   version="1.0"
   width="48"
   height="48"
   id="svg11300"
   sodipodi:version="0.32"
   inkscape:version="0.46"
   sodipodi:docname="xfpm-brightness-lcd.svg"
   inkscape:output_extension="org.inkscape.output.svg.inkscape">
  <metadata
     id="metadata21">
    <rdf:RDF>
      <cc:Work
         rdf:about="">
        <dc:format>image/svg+xml</dc:format>
        <dc:type
           rdf:resource="http://purl.org/dc/dcmitype/StillImage" />
      </cc:Work>
    </rdf:RDF>
  </metadata>
  <sodipodi:namedview
     inkscape:window-height="721"
     inkscape:window-width="1280"
     inkscape:pageshadow="2"
     inkscape:pageopacity="0.0"
     guidetolerance="10.0"
     gridtolerance="10.0"
     objecttolerance="10.0"
     borderopacity="1.0"
     bordercolor="#666666"
     pagecolor="#ffffff"
     id="base"
     showgrid="false"
     inkscape:zoom="10.791667"
     inkscape:cx="24"
     inkscape:cy="24"
     inkscape:window-x="0"
     inkscape:window-y="25"
     inkscape:current-layer="svg11300" />
  <defs
     id="defs3">
    <inkscape:perspective
       sodipodi:type="inkscape:persp3d"
       inkscape:vp_x="0 : 24 : 1"
       inkscape:vp_y="0 : 1000 : 0"
       inkscape:vp_z="48 : 24 : 1"
       inkscape:persp3d-origin="24 : 16 : 1"
       id="perspective23" />
    <linearGradient
       id="linearGradient5170">
      <stop
         style="stop-color:#000000;stop-opacity:1"
         offset="0"
         id="stop5172" />
      <stop
         style="stop-color:#000000;stop-opacity:0"
         offset="1"
         id="stop5174" />
    </linearGradient>
    <linearGradient
       id="linearGradient5160">
      <stop
         style="stop-color:#ffffff;stop-opacity:1"
         offset="0"
         id="stop5162" />
      <stop
         style="stop-color:#d3d7cf;stop-opacity:1"
         offset="1"
         id="stop5164" />
    </linearGradient>
    <linearGradient
       id="linearGradient5152">
      <stop
         style="stop-color:#ffffff;stop-opacity:1"
         offset="0"
         id="stop5154" />
      <stop
         style="stop-color:#ffffff;stop-opacity:0"
         offset="1"
         id="stop5156" />
    </linearGradient>
    <linearGradient
       x1="23.28125"
       y1="21.40625"
       x2="21.78125"
       y2="55.90625"
       id="linearGradient5158"
       xlink:href="#linearGradient5152"
       gradientUnits="userSpaceOnUse" />
    <radialGradient
       cx="25.90625"
       cy="18.03125"
       r="19.005075"
       fx="25.90625"
       fy="18.03125"
       id="radialGradient5166"
       xlink:href="#linearGradient5160"
       gradientUnits="userSpaceOnUse"
       gradientTransform="matrix(0.73703,0,0,0.73703,6.812572,4.741682)" />
    <radialGradient
       cx="25.3125"
       cy="40.75"
       r="18.0625"
       fx="25.3125"
       fy="40.75"
       id="radialGradient5176"
       xlink:href="#linearGradient5170"
       gradientUnits="userSpaceOnUse"
       gradientTransform="matrix(1,0,0,0.352941,0,26.36765)" />
  </defs>
  <g
     id="layer1"
     transform="translate(-1.1660231,-0.6486486)">
    <path
       d="M 43.375,40.75 C 43.375,44.270815 35.288143,47.125 25.3125,47.125 C 15.336857,47.125 7.25,44.270815 7.25,40.75 C 7.25,37.229185 15.336857,34.375 25.3125,34.375 C 35.288143,34.375 43.375,37.229185 43.375,40.75 z"
       transform="matrix(1.138408,0,0,1.138408,-3.50346,-7.640138)"
       style="opacity:0.23595503;fill:url(#radialGradient5176);fill-opacity:1;fill-rule:evenodd;stroke:none;stroke-width:1;stroke-linecap:butt;stroke-linejoin:miter;marker:none;marker-start:none;marker-mid:none;marker-end:none;stroke-miterlimit:4;stroke-dasharray:none;stroke-dashoffset:0;stroke-opacity:1;visibility:visible;display:inline;overflow:visible"
       id="path5168" />
    <path
       d="M 23.5625,5.53125 L 23.5625,10.65625 C 20.993604,11.013501 18.646191,12.073753 16.71875,13.625 L 13,9.90625 C 11.095031,8.0012812 9.0459565,10.139706 10.90625,12 L 14.625,15.71875 C 13.067023,17.637172 12.020502,19.969868 11.65625,22.53125 L 6.53125,22.53125 C 3.7855147,22.53125 4.0547984,25.5 6.53125,25.5 L 11.5625,25.5 C 11.755706,28.205867 12.703674,30.683551 14.21875,32.75 L 10.90625,36.0625 C 9.09375,37.875 11.318297,39.837953 13,38.15625 L 16.1875,34.96875 C 18.204948,36.76564 20.755546,37.956654 23.5625,38.34375 L 23.5625,42.53125 C 23.5625,45.184373 26.53125,45.188786 26.53125,42.53125 L 26.53125,38.46875 C 29.46022,38.255502 32.127787,37.117213 34.28125,35.375 L 37.0625,38.15625 C 38.565102,39.835629 40.924017,37.741879 39.15625,36.0625 L 36.375,33.28125 C 38.125006,31.116256 39.228658,28.44297 39.4375,25.5 L 43.53125,25.5 C 45.566103,25.5 45.836136,22.53125 43.53125,22.53125 L 39.34375,22.53125 C 38.952144,19.73621 37.759213,17.197731 35.96875,15.1875 L 39.15625,12 C 40.74724,10.232233 38.65349,8.4036481 37.0625,9.90625 L 33.75,13.21875 C 31.691357,11.709397 29.225223,10.760857 26.53125,10.5625 L 26.53125,5.53125 C 26.53125,3.1431283 23.5625,3.3215413 23.5625,5.53125 z"
       style="opacity:1;fill:url(#radialGradient5166);fill-opacity:1;fill-rule:evenodd;stroke:#888a85;stroke-width:1.01015258;stroke-linecap:butt;stroke-linejoin:miter;marker:none;marker-start:none;marker-mid:none;marker-end:none;stroke-miterlimit:4;stroke-dasharray:none;stroke-dashoffset:0;stroke-opacity:1;visibility:visible;display:inline;overflow:visible"
       id="path4263" />
    <path
       d="M 25.09375,4.6875 C 24.802565,4.6962497 24.4375,4.830562 24.4375,5.53125 L 24.4375,10.65625 C 24.438113,11.093192 24.119395,11.465029 23.6875,11.53125 C 21.282157,11.865756 19.088867,12.85769 17.28125,14.3125 C 16.928459,14.600807 16.414327,14.573748 16.09375,14.25 L 12.375,10.53125 C 11.651494,9.8077446 11.33476,10.005814 11.1875,10.15625 C 11.04024,10.306686 10.835581,10.679331 11.53125,11.375 L 15.25,15.09375 C 15.573748,15.414327 15.600807,15.928459 15.3125,16.28125 C 13.853456,18.077851 12.872809,20.254443 12.53125,22.65625 C 12.465029,23.088145 12.093192,23.406863 11.65625,23.40625 L 6.53125,23.40625 C 6.0040952,23.40625 5.7220217,23.54544 5.59375,23.65625 C 5.4654783,23.76706 5.4636361,23.855992 5.46875,23.96875 C 5.4789779,24.194267 5.6462216,24.625 6.53125,24.625 L 11.5625,24.625 C 12.020654,24.628151 12.400467,24.980835 12.4375,25.4375 C 12.618808,27.976731 13.517676,30.282217 14.9375,32.21875 C 15.198879,32.573641 15.158888,33.066854 14.84375,33.375 L 11.53125,36.6875 C 11.198455,37.020295 11.132722,37.278629 11.125,37.4375 C 11.117278,37.596371 11.159115,37.695871 11.25,37.78125 C 11.431769,37.952008 11.793527,38.112723 12.375,37.53125 L 15.5625,34.34375 C 15.895436,34.010044 16.43165,33.996295 16.78125,34.3125 C 18.667254,35.992316 21.051823,37.105274 23.6875,37.46875 C 24.119395,37.534971 24.438113,37.906808 24.4375,38.34375 L 24.4375,42.53125 C 24.4375,43.528133 24.847358,43.62484 25.0625,43.625 C 25.277642,43.62516 25.65625,43.530887 25.65625,42.53125 L 25.65625,38.46875 C 25.659401,38.010596 26.012085,37.630783 26.46875,37.59375 C 29.20929,37.394221 31.696414,36.323628 33.71875,34.6875 C 34.071541,34.399193 34.585673,34.426252 34.90625,34.75 L 37.6875,37.53125 C 37.698175,37.541405 37.708595,37.551825 37.71875,37.5625 C 38.195082,38.094871 38.491333,37.932624 38.71875,37.71875 C 38.832458,37.611813 38.907672,37.489364 38.90625,37.34375 C 38.904828,37.198136 38.866787,37.007822 38.5625,36.71875 C 38.551825,36.708595 38.541405,36.698175 38.53125,36.6875 L 35.75,33.90625 C 35.426252,33.585673 35.399193,33.071541 35.6875,32.71875 C 37.328102,30.689104 38.366546,28.198849 38.5625,25.4375 C 38.599533,24.980835 38.979346,24.628151 39.4375,24.625 L 43.53125,24.625 C 44.118829,24.625 44.267023,24.281581 44.28125,23.96875 C 44.288364,23.812334 44.242164,23.683302 44.15625,23.59375 C 44.070336,23.504198 43.917728,23.40625 43.53125,23.40625 L 39.34375,23.40625 C 38.906808,23.406863 38.534971,23.088145 38.46875,22.65625 C 38.101164,20.032652 36.98685,17.661116 35.3125,15.78125 C 34.996295,15.43165 35.010044,14.895436 35.34375,14.5625 L 38.5,11.40625 C 38.515299,11.389252 38.517035,11.391435 38.53125,11.375 C 39.042145,10.784319 38.864072,10.540391 38.6875,10.375 C 38.506015,10.205007 38.180911,10.066987 37.65625,10.5625 L 34.375,13.84375 C 34.066854,14.158888 33.573641,14.198879 33.21875,13.9375 C 31.289159,12.522765 28.99632,11.623605 26.46875,11.4375 C 26.012085,11.400467 25.659401,11.020654 25.65625,10.5625 L 25.65625,5.53125 C 25.65625,5.1134947 25.532627,4.9419285 25.4375,4.84375 C 25.342373,4.7455715 25.239343,4.6831252 25.09375,4.6875 z"
       style="opacity:0.64606742;fill:none;fill-opacity:1;fill-rule:evenodd;stroke:url(#linearGradient5158);stroke-width:1;stroke-linecap:butt;stroke-linejoin:miter;marker:none;marker-start:none;marker-mid:none;marker-end:none;stroke-miterlimit:4;stroke-dasharray:none;stroke-dashoffset:0;stroke-opacity:1;visibility:visible;display:inline;overflow:visible"
       id="path5150" />
  </g>
</svg>
